X: 1
T: The Hare's Paw
R: reel
M: 4/4
L: 1/8
K: Gmaj
~G3B A2GA|BE~E2 GED2|GFGA BABd|1 (3efg fg edBA:|2 (3efg fg ~e3f||
|:g2fg edBc|d2 ed Bd d2|1 g2fg edBd|
(3efg fg ~e3f:|2 e3f edBd| (3efg fa gedB||


Tune 1462	Setting 14854

